X:30
T: What brought the blood?, S. 90
N: I0529
O: Irland
S: O BOYLE, Sean: 25 Irish Folksongs, Dublin 1976]
R: Ballade, ???]
M: 4/4
L: 1/16
K: G
G4G3=FG3A_B3G | A3=FD3EF8 |
d6d2cA3F3A | c12_B2c2 | d4d3dc4d2d2 | G4GAG=FD3C
D2F2 | G4G4=F4c4 | _B4-=Bc_BG2A3B3A |
G4G3=FD2C2D2F2 | G12z4

